#src/img/fixing/c1.svg

<svg width="57" height="69" viewBox="0 0 57 69" fill="none" xmlns="http://www.w3.org/2000/svg">
  <path fill-rule="evenodd" clip-rule="evenodd" d="M31.4501 6.00419C36.0446 0.0294714 42.4309 0 42.4309 0C42.4309 0 43.3808 5.61766 38.8174 11.0302C33.9438 16.8088 28.4052 15.8634 28.4052 15.8634C28.4052 15.8634 27.3645 11.3181 31.4501 6.00419Z" fill="#999999"/>
  <path fill-rule="evenodd" clip-rule="evenodd" d="M28.9887 19.7978C31.3526 19.7978 35.738 16.5923 41.4478 16.5923C51.2753 16.5923 55.1415 23.4931 55.1415 23.4931C55.1415 23.4931 47.5802 27.3085 47.5802 36.5658C47.5802 47.0088 57 50.6077 57 50.6077C57 50.6077 50.415 68.898 41.5213 68.898C37.4356 68.898 34.2609 66.181 29.9559 66.181C25.5693 66.181 21.2172 68.9989 18.3824 68.9989C10.2606 69 0 51.6505 0 37.7039C0 23.9828 8.68468 16.785 16.8307 16.785C22.1269 16.7838 26.2367 19.7978 28.9887 19.7978Z" fill="#999999"/>
</svg>

<svg width="57" height="69" fill="none" xmlns="http://www.w3.org/2000/svg"><path fill-rule="evenodd" clip-rule="evenodd" d="M31.45 6.004C36.045.03 42.43 0 42.43 0s.95 5.618-3.613 11.03c-4.873 5.779-10.412 4.833-10.412 4.833s-1.04-4.545 3.045-9.859zm-2.461 13.794c2.364 0 6.749-3.206 12.459-3.206 9.827 0 13.694 6.901 13.694 6.901S47.58 27.31 47.58 36.566c0 10.443 9.42 14.042 9.42 14.042s-6.585 18.29-15.479 18.29c-4.085 0-7.26-2.717-11.565-2.717-4.387 0-8.739 2.818-11.574 2.818C10.261 69 0 51.65 0 37.704c0-13.721 8.685-20.919 16.83-20.919 5.297-.001 9.407 3.013 12.159 3.013z" fill="#999"/></svg>
